X:1
T:Title
%%score 1 { 2 | 3 }
L:1/8
Q:1/4=110
M:9/8
K:C
V:1 treble nm="Grand Piano, Soprano"
V:2 treble nm="Choir Pad, Bangkok, 98.98 D"
V:3 bass 
V:1
 [EG]3 [EG]3- [EG][FA][EG] | [CE][CD]C [CA]3 [CG]3 | [Ec]3 [DB]3- [DB][B,D][CE] | %3
w: By~William~James~Kirkpatrick,~1891 * * * *|||
 [DF][FA][EG] [CE]6 | [EG]3 [EG]3- [EG][FA][EG] | [CE][CD]C [CA]3 [Cc]3 | %6
w: |||
 [EA]3 [DG]3- [DG][B,D][DB] | [CA][CE][D^F] [B,G]6 | G2 G [Fd]3- [Fd][Ge][Fd] | %9
w: |||
 [FB][FA][FG] [EG]3 [Ec]3 | [CE]3 [EA]3- [EA][EA][EA] | [^FA][FB][Fc] [GB]3 [=FA]3 | %12
w: |||
 G3 [Ge]3- [Ge][Gd][Gc] | [Fd][Fc][FA] [EG]3 [CE]3 | [Ec]3 [FB]3- [FB][FB][FB] | %15
w: |||
 [FA][EG][FB] [Ec]6- | [Ec]3 z3 z3 |] %17
w: ||
V:2
 C3 C3- CCC | G,F,E, F,3 E,3 | G,3 G,3- G,/ z/ G,G, | G,G,G, G,6 | C3 C3- CCC | G,F,E, F,3 E,3 | %6
 C3 B,3- B,G,G, | ^F,G,A, G,6 | G,2 G, B,2 B, B,[K:treble]CB, | DCB, C3 G,3 | G,3 C2 C CCC | %11
 CCC D3 C3 | B,3 C2 C C[K:bass]B,C | A,A,C C3 G,3 | G,3 G,[K:treble]DD D2 D | D2[K:bass] G, G,6- | %16
 G,3 z3 z3 |] %17
V:3
 C,3 C,3- C,C,C, | C,C,C, C,3 C,3 | C,3 z3 z3 | G,,G,,G,, C,6 | C,3 C,3- C,C,C, | C,C,C, C,3 C,3 | %6
 C,3 D,3- D,D,D, | D,D,D, G,,6 | z3 G,2 G, G,G,G, | G,G,G, C,3 C,3 | C,3 A,,2 A,, A,,A,,A,, | %11
 D,D,D, G,6 | G,3 C,2 C, C,D,E, | F,F,F, C,3 C,3 | C,3 z G,G, G,2 G, | .G,3 C,6- | C,3 z3 z3 |] %17

